X: 20148
T: Joan Martin's
R: polka
M: 2/4
K: Dmajor
DF FD|CE EF/E/|DE FG|A2 A2|
DF FD|CE EF/G/|AG EC|D2 D2:|
Ad de|fd dc/B/|Ad df|e2 e2|
Ad de|fd dc/B/|AF EF|D2 D2:|

